X: 1
T: Anchors Aweigh
P: piffero primo a0703
O: Charles Zimmerman
%R: march
F: http://ancients.sudburymuster.org/mus/col/pdf/serviceF.pdf
Z: 2020 John Chambers <jc:trillian.mit.edu>
M: 4/4
L: 1/8
K: D
z2 !segno!|\
D4 F2A2 | B3F B4 | d4 e2A2 | d6 z2 |\
B4 d2B2 | A2B2 c2d2 | ^G2B2 e2d2 | c2A2 G2E2 |\
D4 F2A2 | B3F B4 |
d4 e2A2 | d6 z2 |\
B4 d2B2 | A2B2 c2d2 | f>A^GA e>AGA | "^Fine"d6 |]\
f>f |\
f2F2 BB B/c/d/e/ | ff/f/ f^A Bz e>e |
e2 E2 AA A/B/c/d/ | ee/e/ e^G Az a>a |\
a^abg efgf | edcB A^G"^DS al Fine"=GE |] y8
